!!!!SEGMENT: pl-wn--sd-xvi-qu-273--064_gomolka-mikolaj--boze-litosciwy.krn
!!!cenid: 15xx:269
!!!COM: Gomółka, Mikołaj
!!!COM-rismid: pe30013343
!!!CDT: ~1535->1591/04/30
!!!CNT: Polish
!!!GTL: Melodiae na psalterz polski
!!!OTL: LXIV. Boże litościwy,
!!!PDT: 1580
!!!AGN: Sacred
!!!SMS-siglum: PL-Wn
!!!SMS-shelfmark: SD XVI.Qu.273
!!!SMS-shelfwork: 064 G
!!!NIFC-rismid:
!!!ONB-nifc: Melodiae na psalterz polski
**kern	**text	**kern	**text	**kern	**text	**kern	**text
*part4	*part4	*part3	*part3	*part2	*part2	*part1	*part1
*staff4	*staff4	*staff3	*staff3	*staff2	*staff2	*staff1	*staff1
*clefF3	*	*clefC3	*	*clefC2	*	*clefG2	*
*k[b-]	*	*k[b-]	*	*k[b-]	*	*k[b-]	*
*g:	*	*g:	*	*g:	*	*g:	*
*M4/2	*	*M4/2	*	*M4/2	*	*M4/2	*
*met(C|)	*	*met(C|)	*	*met(C|)	*	*met(C|)	*
*	*verse[1]	*	*verse[1]	*	*verse[1]	*	*verse[1]
=-	=-	=-	=-	=-	=-	=-	=-
1G	Bo-	2.G	Bo-	1d	Bo-	1g	Bo-
.	.	4A	.	.	.	.	.
!	!'ż'	!	!'ż'	!	!'ż'	!	!'ż'
4G	-ʒe	2B-	-ʒe	2g	-ʒe	1dd	-ʒe
4F	.	.	.	.	.	.	.
4E-X	li-	2B-	li-	2g	li-	.	.
4D	.	.	.	.	.	.	.
=3-	=3-	=3-	=3-	=3-	=3-	=3-	=3-
4C	-toś-	4c	-toś-	2.g	-toś-	4ee	li-
4BB-X	.	4d	.	.	.	2dd	-toś-
2C	-ći-	2e	-ći-	.	.	.	.
.	.	.	.	4a	-ći-	4cc	-ći-
4G	-wy	2d	(-wy)	4b-	(-wy)	2.dd	(-wy)
4A	.	.	.	4a	.	.	.
2B-	W_móy	2d	W_móy	4g	W_móy	.	.
.	.	.	.	4f	.	4dd	W_móy
=4-	=4-	=4-	=4-	=4-	=4-	=4-	=4-
!!LO:PB:g=original
2E	czás	2.e	czás	2g	czás	2cc	czás
2E	nieʃᴣ-	.	.	2g	nieʃᴣ-	2b-/	nieʃᴣ-
.	.	4d	nieʃᴣ-	.	.	.	.
2F/	-cʒęś-	4c	-cʒęś-	2.f	-cʒęś-	2b-/	-cʒęś-
.	.	4B-	.	.	.	.	.
2F/	-li-	2c/	-li-	.	.	2a	-li-
.	.	.	.	4e/	-li-	.	.
=5-	=5-	=5-	=5-	=5-	=5-	=5-	=5-
2G	-wy	4B-	-wy	4d	-wy	2b-/	-wy
.	.	4c	.	4e	.	.	.
2D	Rácʒ	2d	Rácʒ	2f	Rácʒ	2a	Rácʒ
2.AA	mod-	2.c/	mod-	2.e/	mod-	2.a	mod-
4C	-li-	4c/	-li-	4e/	-li-	4g	-li-
=6-	=6-	=6-	=6-	=6-	=6-	=6-	=6-
4GG	-twy	4B-	-twy	2d	-twy	2b-/	(-twy)
4AA	.	4c	.	.	.	.	.
4BB-	mo-	4d	mo-	2B-	mo-	2b-/	mo-
4C	.	4e	.	.	.	.	.
2.D	-ie	2.f	-ie	2.G	.	2.a	-ie
4AA	Prʒy-	4e	Prʒy-	4c	-ie	4cc	Prʒy-
=7-	=7-	=7-	=7-	=7-	=7-	=7-	=7-
2BB-	-jąć	2d	-jąć	2f	Prʒy-	2b-/	-jąć
2C	w_u-	2c/	w_u-	2e	-jąć	2.a	w_u-
2D	.	2B-	.	2d	.	.	.
.	.	.	.	.	.	4g	.
2E	-ʃᴣy	4A	-ʃᴣy	2c	w_u-	1g	-ʃᴣy
.	.	4G	.	.	.	.	.
=8-	=8-	=8-	=8-	=8-	=8-	=8-	=8-
1D	ʃwo-	1A	ʃwo-	1d	-ʃᴣy	.	.
.	.	.	.	.	.	2f	ʃwo-
!!LO:N:vis=00
!	!	!	!	!	!	!'cauda po lewej stronie'	!
1G	-ie.	1G/	-ie.	1d/	ʃwoie.	1g/	-ie.
=-	=-	=-	=-	=-	=-	=-	=-
*-	*-	*-	*-	*-	*-	*-	*-
!!!RDF**kern: l = terminal long
!!!system-decoration: s1,s2,s3,s4
!!!ENC:Anna Matuszewska
!!!END:2020-02-12
!!!URL-scan: https://polona.pl/item/melodiae-na-psalterz-polski,Nzk3MTM4ODQ/160 Scan on Polona
!!!IIIF: https://polona.pl/iiif/item/Nzk3MTM4ODQ/manifest.json
